X:332
T:B332-  Now, Now Comes On the Glorious  Year
Q:1/4=120
L:1/4
M:C|
K:C
cc/c/cC|EGG2|cc/B/A(G/F/)|(E/F/)GG2|\
cc/c/c3/2e/|(d/c/d/)e/ d3/2e/|(f/e/) (d/c/)g(g/f/)|e2c2|\
":s:"ff/f/f(a/g/)|(f/e/) (d/c/)d3/2d/|cc/c/c(e/d/)|\
(c/B/) (A/G/)GA/B/|cB/A/GF/E/|F3/2G/A3/2A/|\
GGc(E/F/)|G2":s:"c2|]

